X: 15080
T: Gervaise Brawl
R: polka
M: 2/4
K: Gminor
|:GABc|d2d2|c2c2|B2B2|ABcA|B4:|
|:GABc|dcB2|c2d2|G2cB|AGF2|F2cB|AGF2|F2G2|G2F2|G4:|
|:G2d2|c2A2|BABc|dcBA|G2d2|c2A2|BABc|d4:|
|:BABc|A2B2|G2A2|F4|FGA2|D2G2|G2F2|G4:|
|:d2B2|d2B2|ABc2|A4|Bcd2|c2B2|A2G2|F4|
d2B2|d2B2|ABc2|A4|Bcd2|c2B2|A2G2|F4:|
|:FGA2|D2G2|G2F2|G4|G4|FGA2|D2G2|G2F2|G4|G4:|

